packages/axiom-materials/src/icon_svgs/open.svg

<?xml version="1.0" encoding="UTF-8"?>
<svg width="16px" height="16px" viewBox="0 0 16 16" version="1.1" xmlns="http://www.w3.org/2000/svg" xmlns:xlink="http://www.w3.org/1999/xlink">
    <!-- Generator: sketchtool 43.2 (39069) - http://www.bohemiancoding.com/sketch -->
    <title>open</title>
    <desc>Created with sketchtool.</desc>
    <defs></defs>
      <path fill-rule="evenodd" d="M9.25,2 L14,2 L14,6.75 L12.5,6.75 L12.5,4.5 L7.5,9.5 L6.5,8.5 L8.75,6.25 L11.5,3.5 L9.25,3.5 L9.25,2 Z M9.9985,9.001 L11.3645,7.636 C11.4535,8.042 11.4995,8.5 11.4995,9.035 L11.4995,9.465 C11.4995,10.537 11.3145,11.302 10.9655,11.954 C10.6175,12.605 10.1055,13.117 9.4535,13.466 C8.8015,13.814 8.0365,14 6.9645,14 L6.5355,14 C5.4635,14 4.6985,13.814 4.0465,13.466 C3.3945,13.117 2.8825,12.605 2.5345,11.954 C2.1855,11.302 1.9995,10.537 1.9995,9.465 L1.9995,9.035 C1.9995,7.963 2.1855,7.198 2.5345,6.546 C2.8825,5.895 3.3945,5.383 4.0465,5.034 C4.6985,4.686 5.4635,4.5 6.5355,4.5 L6.9645,4.5 C7.4995,4.5 7.9575,4.546 8.3645,4.636 L7.2495,5.75 L6.9985,6.001 C6.9865,6.001 6.9775,6 6.9645,6 L6.5355,6 C5.7345,6 5.2005,6.118 4.7535,6.357 C4.3635,6.565 4.0655,6.863 3.8565,7.254 C3.6185,7.7 3.4995,8.234 3.4995,9.035 L3.4995,9.465 C3.4995,10.266 3.6185,10.8 3.8565,11.246 C4.0655,11.637 4.3635,11.935 4.7535,12.143 C5.2005,12.382 5.7345,12.5 6.5355,12.5 L6.9645,12.5 C7.7655,12.5 8.2995,12.382 8.7465,12.143 C9.1365,11.935 9.4345,11.637 9.6435,11.246 C9.8815,10.8 9.9995,10.266 9.9995,9.465 L9.9995,9.035 C9.9995,9.023 9.9985,9.014 9.9985,9.001 Z"/>
</svg>

<svg height="16" viewBox="0 0 16 16" width="16" xmlns="http://www.w3.org/2000/svg"><path d="m9.25 2h4.75v4.75h-1.5v-2.25l-5 5-1-1 2.25-2.25 2.75-2.75h-2.25zm.7485 7.001 1.366-1.365c.089.406.135.864.135 1.399v.43c0 1.072-.185 1.837-.534 2.489-.348.651-.86 1.163-1.512 1.512-.652.348-1.417.534-2.489.534h-.429c-1.072 0-1.837-.186-2.489-.534-.652-.349-1.164-.861-1.512-1.512-.349-.652-.535-1.417-.535-2.489v-.43c0-1.072.186-1.837.535-2.489.348-.651.86-1.163 1.512-1.512.652-.348 1.417-.534 2.489-.534h.429c.535 0 .993.046 1.4.136l-1.115 1.114-.251.251c-.012 0-.021-.001-.034-.001h-.429c-.801 0-1.335.118-1.782.357-.39.208-.688.506-.897.897-.238.446-.357.98-.357 1.781v.43c0 .801.119 1.335.357 1.781.209.391.507.689.897.897.447.239.981.357 1.782.357h.429c.801 0 1.335-.118 1.782-.357.39-.208.688-.506.897-.897.238-.446.356-.98.356-1.781v-.43c0-.012-.001-.021-.001-.034z" fill-rule="evenodd"/></svg>
